themes/MaterialDesignP/images/sub_panel/Product_Categories.svg

<?xml version="1.0" encoding="UTF-8" standalone="no"?>
<svg width="30px" height="30px" viewBox="0 0 30 30" version="1.1" xmlns="http://www.w3.org/2000/svg" xmlns:xlink="http://www.w3.org/1999/xlink">
    <!-- Generator: Sketch 3.8.3 (29802) - http://www.bohemiancoding.com/sketch -->
    <title>acc_product_categories</title>
    <desc>Created with Sketch.</desc>
    <defs></defs>
    <g id="Page-1" stroke="none" stroke-width="1" fill="none" fill-rule="evenodd">
        <g id="acc_product_categories" fill="#FFFFFF">
            <path d="M21.056243,28.0134805 C19.2475492,29.8221743 16.3104007,29.8221743 14.5012122,28.0134805 L1.62317403,15.4599782 C0.695575339,14.6095557 0,13.3420849 0,11.9816068 L0,4.63799346 C0,2.07138972 2.07188444,0 4.63799346,0 L11.9816068,0 C13.3420849,0 14.6095557,0.695575339 15.4599782,1.62317403 L27.9363043,14.5788831 C29.7449981,16.3875769 29.7449981,19.3252201 27.9363043,21.1339139 L21.056243,28.0134805 L21.056243,28.0134805 Z M19.9589555,26.9156984 L26.8385222,20.0361318 C28.0446478,18.8305008 28.0446478,16.8669599 26.8385222,15.6608342 L14.0841638,2.4424292 C13.5741082,1.85519738 12.8320293,1.54599782 11.9816068,1.54599782 L4.59148985,1.49949421 C2.8911396,1.49949421 1.54599782,2.9371485 1.54599782,4.63799346 L1.54599782,11.9816068 C1.54599782,12.8315346 1.85519738,13.5736135 2.44292392,14.0841638 L15.583658,26.9156984 C16.7897837,28.121824 18.7528299,28.121824 19.9589555,26.9156984 L19.9589555,26.9156984 Z M6.95674283,3.09199564 C9.09046719,3.09199564 10.8219847,4.8235132 10.8219847,6.95723755 C10.8219847,9.09046719 9.09046719,10.8219847 6.95674283,10.8219847 C4.8235132,10.8219847 3.09199564,9.09046719 3.09199564,6.95723755 C3.09199564,4.8235132 4.8235132,3.09199564 6.95674283,3.09199564 L6.95674283,3.09199564 Z M6.95674283,4.63799346 C5.67393568,4.63799346 4.63799346,5.67393568 4.63799346,6.95723755 C4.63799346,8.2400447 5.67393568,9.27598692 6.95674283,9.27598692 C8.2400447,9.27598692 9.27598692,8.2400447 9.27598692,6.95723755 C9.27598692,5.67393568 8.2400447,4.63799346 6.95674283,4.63799346 L6.95674283,4.63799346 Z" id="Page-1-Copy-2"></path>
        </g>
    </g>
</svg>

<?xml version="1.0" encoding="utf-8"?>
<!-- Generator: Adobe Illustrator 15.0.0, SVG Export Plug-In . SVG Version: 6.00 Build 0)  -->
<!DOCTYPE svg PUBLIC "-//W3C//DTD SVG 1.1//EN" "http://www.w3.org/Graphics/SVG/1.1/DTD/svg11.dtd">
<svg version="1.1" id="图层_1" xmlns="http://www.w3.org/2000/svg" xmlns:xlink="http://www.w3.org/1999/xlink" x="0px" y="0px"
	 width="30px" height="30px" viewBox="0 0 30 30" enable-background="new 0 0 30 30" xml:space="preserve">
<title>acc_product_categories</title>
<desc>Created with Sketch.</desc>
<g id="Page-1">
	<g id="acc_product_categories">
		<path id="Page-1-Copy-2" fill="#999999" d="M21.057,28.014c-1.809,1.809-4.746,1.809-6.556,0L1.623,15.46
			C0.696,14.609,0,13.342,0,11.981V4.638C0,2.071,2.072,0,4.638,0h7.343c1.361,0,2.628,0.695,3.479,1.623l12.477,12.956
			c1.809,1.809,1.809,4.746,0,6.555L21.057,28.014L21.057,28.014z M19.959,26.916l6.879-6.88c1.207-1.206,1.207-3.169,0-4.376
			L14.084,2.442c-0.51-0.587-1.252-0.896-2.103-0.896L4.591,1.5c-1.7,0-3.045,1.438-3.045,3.139v7.343
			c0,0.85,0.309,1.592,0.897,2.103l13.141,12.832C16.789,28.122,18.753,28.122,19.959,26.916L19.959,26.916z M6.957,3.092
			c2.134,0,3.865,1.731,3.865,3.865c0,2.133-1.731,3.865-3.865,3.865c-2.133,0-3.865-1.731-3.865-3.865
			C3.092,4.823,4.824,3.092,6.957,3.092L6.957,3.092z M6.957,4.638c-1.283,0-2.318,1.036-2.318,2.319s1.036,2.319,2.318,2.319
			c1.284,0,2.319-1.036,2.319-2.319S8.24,4.638,6.957,4.638L6.957,4.638z"/>
	</g>
</g>
</svg>
